X:659
T:De'il Among The Tailors, The
C:Joe Buchanan's Scottish Tome - Page 203.1
I:203 1
R:Reel
Z:Carl Allison
L:1/8
M:4/4
K:A
g | a2 eg a2 eg | a2 ea fedc | dfBf dfBf | dfba gefg |
a2 eg a2 eg | a2 ea fedc | defe dcBA | E2 G2 A2 :|
e2 | ceAe ceAe | ceag fedc | dfBf dfBf | dfba gfed |
ceAe ceAe | ceag fedc | defd ecBA | E2 G2 A2 z :|
